X:1
T:Save me, O God
T:Save me, O God (Jacob Cubitt Pring)
C:Jacob Cubitt Pring
Z:p52, Eight Anthems,
Z:London: [c1795].
%%score [ 1 2 3 4 ]
L:1/8
M:4/2
K:C
V:1 treble nm="Soprano" snm="S."
V:2 treble nm="Alto" snm="A."
V:3 treble-8 transpose=-12 nm="Tenor" snm="T."
V:4 bass nm="Bass" snm="B."
V:1
 A4 !fermata!A4 c4 A2 A2 | ^G4 z4 z8 | z8 z4 c2 c2 | e6 d2 c4 A4 | ^G4 =G6 A2 G2 F2 | E8 c4 A4 | %6
w: Save me, save me, O|God;|for the|wa- ters are come|in ev’n un- to my|soul. Save me;|
 z8 !fermata!z4 z4 | z16 | z16 | z4 G2 G2 G4 ^F4 | (G2 A2) B4 c4 ^G4 | A4 A4 ^G8 | z4 G2 G2 G6 F2 | %13
w: |||for the wa- ters|are _ come in un-|to my soul.|I am wea- ry|
 (E2 D2) (E2 F2) G4 F2 E2 | E4 D4 C4 E4 | A8 A2 ^G2 G4 | z4 B4 c8 | c2 B2 B4 z4 c2 c2 | %18
w: of _ my _ cry- ing: my|throat is dry, my|sight fail- eth me,|my sight|fail- eth me: I am|
 B4 ^G4 z4 A2 A2 | ^G4 E4 E4 D4 | E4 E2 E2 c8 | c4 B4 c8 | z4 ^G4 A4 B2 c2 | (B2 ^G2) A4 =G4 F4 | %24
w: wea- ry, I am|wea- ry of my|cry- ing, my sight|fail- eth me,|for wait- ing so|long _ up- on my|
 E4 B4 c4 d2 e2 | ^G4 A4 A4 G4 | A16- | A8- A2 A2 ^G2 G2 | A16- | A16- | !fermata!A16 |] %31
w: God, for wait- ing so|long up- on my|God,|_ _ up- on my|God.|_||
V:2
 E4 !fermata!E4 E4 E2 F2 | E4 z4 z8 | z8 z4 E2 E2 | (E2 ^F2) ^G4 (A2 E2) F4 | E4 E6 E2 D2 D2 | %5
w: Save me, save me, O|God;|for the|wa- * ters are _ come|in ev’n un- to my|
 C8 E4 E4 | ^G4 E4 !fermata!z4 E2 D2 | C4 F4 F4 F4 | F4 F4 (F2 E2) E2 E2 | (E2 D2) z4 z4 D2 C2 | %10
w: soul. Save me,|save me; for the|wa- ters are come|in ev’n un- * to my|soul, _ ev’n un-|
 (B,2 C2) D4 G4 E4- | E4 E2 E2 E8 | z4 E2 E2 D6 D2 | (C2 B,2) (C2 D2) E4 D2 C2 | C6 B,2 C4 C4 | %15
w: to _ my soul, un-|* to my soul.|I am wea- ry|of _ my _ cry- ing: my|throat is dry, my|
 E8 E2 E2 E4 | z4 ^G4 A8 | A2 ^G2 E2 E2 E8 | E4 E2 E2 E8- | E4 E4 C4 D4 | B,4 B,4 z4 (3(C2 E2 G2) | %21
w: sight fail- eth me,|my sight|fail- eth: I am wea-|ry, I am wea-|* ry of my|cry- ing, my _ _|
 F8 E2 E2 E4 | z4 E4 E4 E2 E2 | ^G2 E2 E4 z2 G,2 A,2 B,2 | C4 B,4 E4 D2 C2 | %25
w: sight fail- eth me,|for wait- ing so|long, so long up- on my|God, for wait- ing so|
 (E2 D2) (C2 B,A,) (B,2 C2) D4 | C4 F4 E4 F2 F2 | E4 (D2 C2) B,4 E4 | E4 ^C4 D4 E2 F2 | %29
w: long _ up- * * on _ my|God, for wait- ing so|long up- * on my|God, for wait- ing so|
 G4 F4 F4 (E2 D2) | !fermata!E16 |] %31
w: long up- on my _|God.|
V:3
 c4 !fermata!c4 A4 c2 d2 | B4 B2 B2 c6 B2 | (A2 ^G2) (A2 B2) (c2 B2) z4 | z4 B2 B2 A4 (d3 c) | %4
w: Save me, save me, O|God; for the wa- ters|are _ come _ in _|ev’n un- to my _|
 B4 c6 c2 G2 G2 | G8 A4 c4 | B4 ^G4 !fermata!z4 z4 | z4 d2 c2 B4 G4 | (G2 A2) B4 B2 c2 c2 c2 | %9
w: soul, ev’n un- to my|soul. Save me,|save me;|for the wa- ters|are _ come in un- to my|
 (c2 B2) z4 z8 | z4 G2 F2 E4 B4 | c2 c2 c2 c2 B8 | z4 c2 c2 B4 G4 | G4 G4 G4 B2 c2 | %14
w: soul, _|ev’n un- to my|soul, un- to my soul.|I am wea- ry|of my cry- ing: my|
 (G2 E2) F4 E4 G4 | c4 c2 c2 (c2 B2) B4 | e8 e4 e4 | e8 z4 A2 A2 | ^G4 B4 z4 c2 c2 | B4 ^G4 A6 A2 | %20
w: throat _ is dry, my|sight fail- eth me, _ my|sight fail- eth|me: I am|wea- ry, I am|wea- ry of my|
 ^G4 G4 z4 =G4 | A4 d2 d2 G8 | z4 B4 c4 d2 e2 | e2 B2 c2 c2 d4 d4 | G4 ^G4 A4 B2 c2 | %25
w: cry- ing, my|sight fail- eth me,|for wait- ing so|long, so long up- on my|God, for wait- ing so|
 B2 B2 e2 (dc) B6 B2 | A4 d4 c4 d2 d2 | c4 (B2 A2) B4 B4 | c4 A4 A4 ^c2 d2 | e4 d4 d4 (^c2 B2) | %30
w: long, so long up- * on my|God, for wait- ing so|long up- * on my|God, for wait- ing so|long up- on my _|
 !fermata!^c16 |] %31
w: God.|
V:4
 A,4 !fermata!A,,4 A,4 A,2 D,2 | E,4 z4 z4 E,2 E,2 | F,6 E,2 (A,2 ^G,2) A,4 | E,8 A,2 A,2 D,2 D,2 | %4
w: Save me, save me, O|God; for the|wa- ters are _ come|in ev’n un- to my|
 E,4 C,6 C,2 B,,2 G,,2 | C,8 A,,4 A,,4 | E,4 E,4 !fermata!z4 z4 | z8 z4 D,2 C,2 | %8
w: soul, ev’n un- to my|soul. Save me,|save me;|for the|
 B,,4 G,,4 C,4 C,4 |"^Original clefs treble, alto, tenor, bass." G,4 z4 z8 | z8 z4 E,2 D,2 | %11
w: wa- ters are come|in,|ev’n un-|
 C,4 A,,4 E,8 | z4 C,2 C,2 G,,4 G,,4 | C,4 C,4 C,4 C,2 C,2 | G,4 G,,4 C,4 C,4 | A,,8 E,2 E,2 E,4 | %16
w: to my soul.|I am wea- ry|of my cry- ing: my|throat is dry, my|sight fail- eth me,|
 z4 E,4 A,8 | E,2 E,2 E,4 z4 A,,2 A,,2 | E,4 E,4 z4 A,,2 A,,2 | E,4 E,4 F,6 F,2 | E,4 E,4 z4 E,4 | %21
w: my sight|fail- eth me: I am|wea- ry, I am|wea- ry of my|cry- ing, my|
 D,8 C,2 C,2 C,4 | z4 E,4 C,4 B,,2 A,,2 | E,4 A,,4 B,,4 G,,4 | C,4 E,4 C,4 B,,2 A,,2 | %25
w: sight fail- eth me,|for wait- ing so|long up- on my|God, for wait- ing so|
 E,4 A,,4 E,6 E,2 | A,,16- | A,,6 A,,2 E,4 E,4 | A,4 G,4 F,4 E,2 D,2 | ^C,4 D,4 A,,4 A,,4 | %30
w: long up- on my|God,|_ up- on my|God, for wait- ing so|long up- on my|
 !fermata!A,,16 |] %31
w: God.|

